X: 331
M: C
L: 1/8
K: C
V: 1
|: g |\
egcg afge | afge fd-dg |
egcg afge | afge fd-de |\
cedf egfa | egdf ec-c :|
V: 2 clef=bass middle=d
z |\
c2c2 c2c2 | c2c2 d2d2 |\
c2c2 c2c2 | f2g2 c2c :|\
|: z |\
c2c2 c2c2 | c2c2 d2d2 |\
c2c2 c2c2 | f2g2 c2c2 |\
c2c2 c2c2 | c2c2 d2d2 |\
c2d2 e2f2 | g2g2 c2c :|

